symbols/web/check_box_outline_blank/materialsymbolsoutlined/check_box_outline_blank_gradN25_24px.svg

<svg xmlns="http://www.w3.org/2000/svg" height="24" width="24"><path d="M5.1 20.775q-.775 0-1.325-.55-.55-.55-.55-1.325V5.1q0-.775.55-1.325.55-.55 1.325-.55h13.8q.775 0 1.325.55.55.55.55 1.325v13.8q0 .775-.55 1.325-.55.55-1.325.55Zm0-1.875h13.8V5.1H5.1v13.8Z"/></svg>

<svg xmlns="http://www.w3.org/2000/svg" height="24" width="24"><path d="M5.1 20.775Q4.325 20.775 3.775 20.225Q3.225 19.675 3.225 18.9V5.1Q3.225 4.325 3.775 3.775Q4.325 3.225 5.1 3.225H18.9Q19.675 3.225 20.225 3.775Q20.775 4.325 20.775 5.1V18.9Q20.775 19.675 20.225 20.225Q19.675 20.775 18.9 20.775ZM5.1 18.9H18.9Q18.9 18.9 18.9 18.9Q18.9 18.9 18.9 18.9V5.1Q18.9 5.1 18.9 5.1Q18.9 5.1 18.9 5.1H5.1Q5.1 5.1 5.1 5.1Q5.1 5.1 5.1 5.1V18.9Q5.1 18.9 5.1 18.9Q5.1 18.9 5.1 18.9Z"/></svg>
